X: 4291
T: Charlie Stuart.   a Reel.
%R: reel
B: Niel Gow & Sons "Complete Repository" v.4 p.29 #1
Z: 2021 John Chambers <jc:trillian.mit.edu>
M: C|
L: 1/8
K: D
% - - - - - - - - - -
% Voice 1 formatted for compactness and proofreading.
V: 1 staves=2
B |\
.A(FTED) G3B | A(FTED) [E3C3]B | AFTED GABd | AFdF D3 :| f | ~d>efd gfec | ~d>efd ecTBA |
~d>efd gfeg | (f/g/a) e>f d3f || ~d>efd gfec | defa ecTBA | d>efd gfeg | fae>f [d3F3] |]
% - - - - - - - - - -
% Voice 2 preserves the book's staff layout.
V: 2 clef=bass middle=d
z |\
d2d2 b2g2 | d2d2 a2Az | d2=c'2 b2g2 | a2A2 d2D :| z | d2d'2 e'2a2 | f2d'2 a2g'2 |
f'2d'2 a2c'2 | d'2a2 d2d'z || d2d'2 e'2c'2 | d'2d2 a2g2 | f2d2 e2c'2 | d'2a2 d2D |]


